X:1
T:Dribbles of Brandy
S:THI/Hook MS., No. 108
Z:Anthony Buffery <anthony.buffery:RRC.CO.UK> irtrad-l 2001-8-2
R:jig
M:6/8
L:1/8
K:G
EGE G2A | B2e dBG | A2B cBA | BAG FED |
EGE G2A | B2e dBG | A2B cBA | BGE E2G :|
e2f g2e | fag fed | e2f g2e | fed e3 |
e2f g2e | fag fed | e2B cBA | BGE E2z :|
